packages/core/src/svgs/tokens/branded/CNG.svg

<svg width="24" height="24" viewBox="0 0 24 24" fill="none" xmlns="http://www.w3.org/2000/svg">
<path d="M13.8749 5.03749V11.3749L16.3749 9.81248V3.25L13.8749 5.03749ZM17.5375 10.9062L13.25 13.2499L16.3749 15.125L22 11.8687L20.2749 10.8688C19.8576 10.6278 19.3829 10.5042 18.901 10.5107C18.4192 10.5173 17.948 10.6539 17.5375 10.9062ZM16.3749 17.3125L11.3749 13.875V17.3125L16.3749 20.75V17.3125ZM10.125 17.4562V12.625L7.62498 13.875V20.75L8.98123 19.8063C9.78751 19.2813 10.125 18.4438 10.125 17.4562ZM10.9625 10.6625L7.86249 8.87498L2 12.4437L4.75624 14.2312L10.9625 10.6625ZM12.625 6.93749L6.99999 3.25V5.56249C6.99999 6.33749 7.40623 7.05624 8.06248 7.43749L12.625 10.1562V6.93749Z" fill="#00FFFF"/>
</svg>

<svg xmlns="http://www.w3.org/2000/svg" width="24" height="24" fill="none" viewBox="0 0 24 24">
    <path fill="#0FF" d="M13.875 5.037v6.338l2.5-1.563V3.25zm3.663 5.87L13.25 13.25l3.125 1.875L22 11.869l-1.725-1a2.68 2.68 0 0 0-2.737.037m-1.163 6.406-5-3.438v3.438l5 3.437zm-6.25.143v-4.831l-2.5 1.25v6.875l1.356-.944c.807-.525 1.144-1.362 1.144-2.35m.838-6.793-3.1-1.788L2 12.444l2.756 1.787zm1.662-3.726L7 3.25v2.312c0 .775.406 1.494 1.062 1.875l4.563 2.72z"/>
</svg>
